!!!Genre:	Bolgarish
!!!Mode:	Minor
!!!Listening/dance:	dance
!!!:	*B-:
!!!One_Mode:	no
**kern
*thru
*I"P1
*clefG2
*k[b-e-]
*g:
*M2/4
*>A
=1
4.gg
8dd
=2
8ffL
8ee-
8dd
8ccJ
=3
4.dd
8b-
=4
12ddL
12cc
12b-J
12b-L
12a
12gJ
=5
4a
4b-
=6
8aL
8d
8en
8f#XJ
=7
4g
12b-L
12a
12b-J
=8
12ddL
12cc#X
12ddJ
4gg
=9
4.ff
8gg
=10
8ffL
8ee-
8dd
8ccJ
=11
8b-L
8dd
8ff
8ddJ
=12
4.cc
8b-
=13
(8b-L
8f)
(8f
8b-J)
=14
4b-
(8qb-/
12a-XL)
12g
12fJ
=15
2g
=16
2gg
*>bM
*B-:
=17:|!|:
*>B
!LO:TX:a:i:t=Bb-major
8f
4b-
8cc
=18
8dd
4dd
8cc
=19
8dd
4dd
8cc
=20
(8qee-/
2dd)
=21
8ffL
8ee-J
(8qff/
8ee-L)
8ddJ
=22
(8qee-/
8ddL)
8ccJ
(8qdd/
8ccL)
8b-J
=23
8ccL
8ddJ
4b-
=24
4f
4b-
*>eM
*g:
=25:|!|:
*>C
!LO:TX:a:i:t=G-minor
4dd
8ccL
8b-J
=26
4cc
8b-L
8aJ
=27
4g
8b-L
8gJ
=28
2f
=29
4g
4cc
=30
8ccL
16ddL
16ccJJ
8b-L
8aJ
=31
4b-
8b-L
8ccJ
=32
2dd
=33
4dd
8ccL
8b-J
=34
8ffL
8ffJ
8ee-L
8ddJ
=35
8ccL
16ddL
16ccJJ
8b-L
8aJ
=36
2g
=37
8b-L
8cc
8dd
8b-J
=38
8ccL
16ddL
16ccJJ
8b-L
8aJ
=39
2g
=40
4.g
8r
=:|!
*-
